X: 062
T: I wish you all good night
%R: slip-jig
Z: 2018 John Chambers <jc:trillian.mit.edu>
B: Bland and Weller "Country Dances for the Year 1798" p.6 #2
M: 9/8
L: 1/8
K: F
% - - - - - - - - - - - - - - - - - - - - - - - - -
|:\
ABc cBA f3 | g2G G2A BAG |\
ABc cBA d3 | FGF F2B AGF :|
|:\
fga fga g3 | a2d d2e fed |\
fed cBA d3 | FGF F2B AGF :|
% - - - - - - - - - - - - - - - - - - - - - - - - -
%%begintext align
%%   Set & cast off 2 Couple .| up again .|.
%% down the middle up again :|. set to your
%% partner & turn :|:
%%endtext
% - - - - - - - - - - - - - - - - - - - - - - - - -
